X:2
C:G.G. Armstrong
L:1/8
M:6/8
K:G
V:1
G | BdG g2 e | dBG B2 G | BdG g2 e | dBG A2 G |
BdG g2 e | z/ dBG c2 c | Bdg ceg | A2 f g2 :|
 f | g2 b f2 a | efg dBG | g2 b f2 a | efg d3 |
 g2 b f2 a | efg dBG | ceg Bdg | A2 f g2 :|
